assets/icons/tg.svg

<svg width="30" height="30" viewBox="0 0 30 30" fill="none" xmlns="http://www.w3.org/2000/svg">
<path d="M27.458 5.71722L22.9049 24.1864C22.6906 25.0562 21.6996 25.5043 20.8872 25.0914L15.1288 22.1655L12.4058 26.5499C11.6648 27.7449 9.78996 27.2265 9.78996 25.8294V20.9442C9.78996 20.5663 9.95066 20.2061 10.2274 19.9425L21.4496 9.39874C21.4407 9.26695 21.2979 9.15272 21.155 9.24937L7.76336 18.4224L3.26376 16.138C2.21029 15.602 2.25493 14.0995 3.34411 13.6338L25.5296 4.11808C26.592 3.66118 27.7348 4.60134 27.458 5.71722Z" fill="#4A63C4"/>
</svg>

<svg xmlns="http://www.w3.org/2000/svg" width="30" height="30" fill="none"><path fill="#4A63C4" d="m27.458 5.717-4.553 18.47c-.214.87-1.205 1.317-2.018.904l-5.758-2.925-2.723 4.384c-.741 1.195-2.616.677-2.616-.72v-4.886c0-.378.16-.738.437-1.001L21.45 9.398c-.01-.132-.152-.246-.295-.15L7.763 18.422l-4.5-2.284c-1.053-.536-1.008-2.039.081-2.504L25.53 4.118c1.062-.457 2.205.483 1.928 1.6"/></svg>
